public/assets/images/logo.svg

<svg width="161" height="38" viewBox="0 0 161 38" fill="none" xmlns="http://www.w3.org/2000/svg">
<path d="M90.5943 28.658C90.5943 31.1318 89.5239 32.2841 87.2249 32.2841C86.5567 32.2841 86.0217 32.2391 85.6335 32.1504C85.2678 32.0673 84.9352 31.9303 84.6437 31.7427L84.0286 31.3473L82.7711 36.424L83.0872 36.6263C84.138 37.3 85.7078 37.6271 87.8859 37.6271C89.0454 37.6271 90.1713 37.4243 91.2332 37.0247C92.3007 36.6225 93.2523 36.037 94.0622 35.284C94.8767 34.5275 95.5348 33.5789 96.0171 32.4648C96.5004 31.3516 96.7447 30.0703 96.7447 28.658V7.24252H111.084V36.7824H117.235V1.8999H90.5943V28.658Z" fill="black"/>
<path d="M153.695 24.5123C153.146 26.0855 152.325 27.4601 151.255 28.5987C150.184 29.7383 148.865 30.647 147.336 31.3C145.806 31.9529 144.053 32.2842 142.126 32.2842C140.198 32.2842 138.445 31.9529 136.915 31.3C135.388 30.6483 134.084 29.7408 133.037 28.6026C131.988 27.4626 131.179 26.0863 130.63 24.5128C130.077 22.9265 129.797 21.1646 129.797 19.2762C129.797 17.3874 130.077 15.6255 130.63 14.0392C131.18 12.4614 131.992 11.058 133.044 9.86796C134.09 8.68429 135.394 7.7416 136.921 7.06619C138.45 6.38993 140.2 6.04713 142.126 6.04713C144.05 6.04713 145.801 6.38993 147.33 7.06619C148.859 7.74287 150.178 8.68726 151.248 9.8722C152.321 11.0605 153.144 12.4627 153.695 14.0392C154.248 15.6276 154.528 17.3895 154.528 19.2762C154.528 21.1624 154.248 22.9244 153.695 24.5123ZM159.305 11.8204C158.437 9.52049 157.174 7.53075 155.55 5.9067C153.929 4.28606 151.962 2.99929 149.703 2.08291C147.447 1.16779 144.897 0.704083 142.126 0.704083C139.402 0.704083 136.878 1.16779 134.622 2.08291C132.362 2.99929 130.396 4.28606 128.775 5.9067C127.151 7.53075 125.887 9.52049 125.019 11.8204C124.156 14.1101 123.72 16.6119 123.72 19.2575C123.72 21.9778 124.157 24.4877 125.021 26.7176C125.889 28.9564 127.153 30.9024 128.778 32.5015C130.398 34.0971 132.365 35.3643 134.624 36.268C136.879 37.1699 139.403 37.6269 142.126 37.6269C144.897 37.6269 147.446 37.1699 149.701 36.268C151.96 35.3643 153.927 34.0971 155.547 32.5015C157.171 30.9024 158.435 28.9564 159.304 26.7172C160.168 24.4877 160.605 21.9778 160.605 19.2575C160.605 16.6119 160.168 14.1101 159.305 11.8204Z" fill="black"/>
<path d="M58.9534 23.7311C59.535 18.4123 61.697 11.6717 66.1806 8.33371C67.2017 7.57344 68.3646 7.01258 69.606 6.72324C71.1057 6.37366 72.9521 6.60105 73.6657 8.15849C74.5808 10.1555 73.0976 12.4625 71.9271 13.9903C70.2309 16.2045 68.0689 18.0067 65.8254 19.6401C64.6753 20.4775 63.4929 21.2675 62.3169 22.0672C61.8256 22.4015 58.9156 24.1482 58.9156 24.1482C58.9296 23.9437 58.9309 23.9356 58.9534 23.7311ZM65.3757 31.0474C62.5752 31.0474 60.4319 29.7521 59.4871 27.6521C59.4871 27.6521 59.4684 27.6105 59.4527 27.5778C64.2065 24.5342 69.0651 21.5475 73.3106 17.7971C76.8968 14.6288 81.6658 9.4915 80.0558 4.2299C79.007 2.11924 76.5451 1.43789 73.7276 1.3174C62.7382 0.848602 52.5629 15.266 52.5629 25.883C52.5629 26.8939 52.6965 28.0679 52.8492 28.9669C52.8361 28.9753 52.8055 28.9932 52.7678 29.0144C50.9337 29.9893 49.7136 30.5035 49.1943 30.7071C48.2554 31.0754 47.409 31.2604 46.6152 31.2604C45.3416 31.2604 44.7765 30.2002 45.3416 28.4306L51.9956 6.91415C53.2697 2.73526 50.7941 1.3174 48.4569 1.3174C42.2289 1.3174 35.5024 9.4618 30.3354 18.4475H29.6986L33.5198 6.91415C34.8655 2.80441 32.3179 1.3174 29.9807 1.3174C23.4705 1.3174 16.3897 10.1707 11.2223 19.5832H10.8112C11.3165 17.4356 11.8409 15.2053 12.3644 12.9767L12.529 12.3887C12.5197 12.3921 12.5099 12.3951 12.5006 12.3985C12.8027 11.113 13.1039 9.83132 13.4034 8.56917L13.6928 7.32398C13.77 6.99646 13.8463 6.67021 13.9202 6.3465L15.1348 1.1214L8.69377 2.53925C8.65219 2.69114 8.09939 5.02665 7.27252 8.56917L0.605377 37.2445L0.651625 37.2343L0.605377 37.4222L7.0464 36.0039C10.0208 25.174 21.8422 8.39565 25.6639 8.39565C26.3728 8.39565 26.8684 9.03542 26.442 10.5916L18.8682 37.4222L25.5918 36.0039C28.5658 25.174 40.1051 8.39565 43.9263 8.39565C44.6353 8.39565 45.2004 9.03542 44.494 11.2314L38.2634 31.4046C36.7072 36.4307 37.6279 37.5011 39.9638 37.4222C42.3927 37.3399 45.2712 36.1393 47.7578 34.8165C50.322 33.4516 52.4517 31.9646 53.2077 31.4576C53.2977 31.4008 53.3885 31.3439 53.4792 31.2867C54.9599 35.124 58.1185 37.4222 62.1883 37.4222C69.3383 37.4222 75.638 32.0384 78.6816 27.6525L77.8344 24.8223C74.5778 28.7131 70.2576 31.0474 65.3757 31.0474Z" fill="black"/>
</svg>

<svg width="161" height="38" fill="none" xmlns="http://www.w3.org/2000/svg"><path d="M90.594 28.658c0 2.474-1.07 3.626-3.37 3.626-.667 0-1.202-.045-1.59-.134a3.08 3.08 0 01-.99-.407l-.615-.396-1.258 5.077.316.202c1.051.674 2.62 1.001 4.799 1.001 1.16 0 2.285-.203 3.347-.602a8.56 8.56 0 002.83-1.741c.814-.756 1.472-1.705 1.954-2.82.483-1.112.728-2.394.728-3.806V7.243h14.339v29.54h6.151V1.9h-26.64v26.758zm63.101-4.146c-.549 1.573-1.37 2.948-2.44 4.087-1.071 1.14-2.39 2.048-3.919 2.701-1.53.653-3.283.984-5.21.984-1.928 0-3.681-.331-5.211-.984-1.527-.652-2.831-1.56-3.878-2.697-1.049-1.14-1.858-2.517-2.407-4.09-.553-1.587-.833-3.348-.833-5.237 0-1.889.28-3.65.833-5.237.55-1.578 1.362-2.981 2.414-4.171 1.046-1.184 2.35-2.126 3.877-2.802 1.529-.676 3.279-1.019 5.205-1.019 1.924 0 3.675.343 5.204 1.02 1.529.676 2.848 1.62 3.918 2.805a12.156 12.156 0 012.447 4.167c.553 1.589.833 3.35.833 5.237 0 1.886-.28 3.648-.833 5.236zm5.61-12.692c-.868-2.3-2.131-4.29-3.755-5.913-1.621-1.62-3.588-2.908-5.847-3.824-2.256-.915-4.806-1.379-7.577-1.379-2.724 0-5.248.464-7.504 1.379-2.26.916-4.226 2.203-5.847 3.824-1.624 1.624-2.888 3.613-3.756 5.913-.863 2.29-1.299 4.792-1.299 7.438 0 2.72.437 5.23 1.301 7.46.868 2.238 2.132 4.184 3.757 5.784 1.62 1.595 3.587 2.862 5.846 3.766 2.255.902 4.779 1.359 7.502 1.359 2.771 0 5.32-.457 7.575-1.359 2.259-.904 4.226-2.17 5.846-3.767 1.624-1.599 2.888-3.545 3.757-5.784.864-2.23 1.301-4.74 1.301-7.46 0-2.645-.437-5.147-1.3-7.437zM58.953 23.731c.582-5.319 2.744-12.06 7.228-15.397a9.283 9.283 0 013.425-1.61c1.5-.35 3.346-.123 4.06 1.434.915 1.998-.568 4.305-1.739 5.832-1.696 2.214-3.858 4.017-6.102 5.65-1.15.837-2.332 1.627-3.508 2.427-.491.334-3.401 2.081-3.401 2.081.014-.204.015-.212.037-.417zm6.423 7.316c-2.8 0-4.944-1.295-5.889-3.395l-.034-.074c4.754-3.044 9.612-6.03 13.858-9.78 3.586-3.17 8.355-8.306 6.745-13.568-1.049-2.11-3.51-2.792-6.328-2.913C62.738.85 52.563 15.266 52.563 25.883c0 1.01.133 2.185.286 3.084a2.098 2.098 0 01-.081.047c-1.834.975-3.054 1.49-3.574 1.693-.939.368-1.785.553-2.579.553-1.273 0-1.839-1.06-1.273-2.83l6.654-21.516c1.274-4.179-1.202-5.597-3.54-5.597-6.227 0-12.954 8.145-18.12 17.13h-.637l3.82-11.533c1.346-4.11-1.201-5.597-3.538-5.597-6.51 0-13.591 8.854-18.759 18.266h-.41l1.552-6.606.165-.588c-.01.003-.02.006-.028.01.302-1.286.603-2.568.902-3.83l.29-1.245c.077-.328.153-.654.227-.978l1.215-5.225L8.694 2.54a727.05 727.05 0 00-1.421 6.03L.605 37.244l.047-.01-.047.188 6.441-1.418c2.975-10.83 14.796-27.608 18.618-27.608.709 0 1.204.64.778 2.196l-7.574 26.83 6.724-1.418c2.974-10.83 14.513-27.608 18.334-27.608.71 0 1.274.64.568 2.835l-6.23 20.174c-1.557 5.026-.636 6.096 1.7 6.017 2.429-.082 5.307-1.283 7.794-2.605 2.564-1.365 4.694-2.852 5.45-3.36l.271-.17c1.48 3.837 4.64 6.135 8.71 6.135 7.15 0 13.449-5.384 16.493-9.77l-.848-2.83c-3.256 3.891-7.576 6.225-12.458 6.225z" fill="#000"/></svg>
